images/location.svg

<svg height="39" viewBox="0 0 28 39" width="28" xmlns="http://www.w3.org/2000/svg"><g fill="none" transform=""><path d="m14 0c-7.71964169 0-14 6.33613663-14 14.1242633 0 9.6653087 12.5286285 23.8545467 13.062046 24.4538677.5010273.562987 1.3757867.5619968 1.875908 0 .5334175-.599321 13.062046-14.788559 13.062046-24.4538677-.000151-7.78812667-6.2804338-14.1242633-14-14.1242633zm0 35.7801823c-4.21652726-5.053096-11.47885691-15.022407-11.47885691-21.6557667 0-6.3858007 5.14934718-11.58088125 11.47885691-11.58088125 6.3295097 0 11.4788569 5.19508055 11.4788569 11.58080515-.0000755 6.6336643-7.2612726 16.6011472-11.4788569 21.6558428z" fill="#4bccef"/><path d="m14.5000402 8c-4.1355858 0-7.5000402 3.140182-7.5000402 7s3.3645348 7 7.5000402 7 7.4999598-3.140182 7.4999598-7-3.3644544-7-7.4999598-7zm0 11.4945173c-2.6553866 0-4.81555126-2.0161963-4.81555126-4.4945173s2.16024506-4.4945173 4.81555126-4.4945173 4.8155513 2.0161963 4.8155513 4.4945173-2.1602451 4.4945173-4.8155513 4.4945173z" fill="#212d3c"/></g></svg>

<?xml version="1.0" encoding="UTF-8"?>
<svg width="28px" height="39px" viewBox="0 0 28 39" version="1.1" xmlns="http://www.w3.org/2000/svg" xmlns:xlink="http://www.w3.org/1999/xlink">
    <!-- Generator: sketchtool 50.2 (55047) - http://www.bohemiancoding.com/sketch -->
    <title>9DA96E15-6A2A-4472-B366-DF3D5DD7E5F0</title>
    <desc>Created with sketchtool.</desc>
    <defs></defs>
    <g id="Future-Project-Desktop" stroke="none" stroke-width="1" fill="none" fill-rule="evenodd">
        <g id="Future-Camp" transform="translate(-169.000000, -2242.000000)" fill-rule="nonzero">
            <g id="future-camp/tour" transform="translate(0.000000, 1588.000000)">
                <g id="side-data" transform="translate(164.000000, 397.000000)">
                    <g id="003-maps-and-flags" transform="translate(5.000000, 257.000000)">
                        <path d="M14,0 C6.28035831,0 0,6.33613663 0,14.1242633 C0,23.789572 12.5286285,37.97881 13.062046,38.578131 C13.5630733,39.141118 14.4378327,39.1401278 14.937954,38.578131 C15.4713715,37.97881 28,23.789572 28,14.1242633 C27.999849,6.33613663 21.7195662,0 14,0 Z M14,35.7801823 C9.78347274,30.7270863 2.52114309,20.7577753 2.52114309,14.1244156 C2.52114309,7.7386149 7.67049027,2.54353435 14,2.54353435 C20.3295097,2.54353435 25.4788569,7.7386149 25.4788569,14.1243395 C25.4787814,20.7580038 18.2175843,30.7254867 14,35.7801823 Z" id="Shape" fill="#4BCCEF"></path>
                        <path d="M14.5000402,8 C10.3644544,8 7,11.140182 7,15 C7,18.859818 10.3645348,22 14.5000402,22 C18.6355456,22 22,18.859818 22,15 C22,11.140182 18.6355456,8 14.5000402,8 Z M14.5000402,19.4945173 C11.8446536,19.4945173 9.68448894,17.478321 9.68448894,15 C9.68448894,12.521679 11.844734,10.5054827 14.5000402,10.5054827 C17.1553464,10.5054827 19.3155915,12.521679 19.3155915,15 C19.3155915,17.478321 17.1553464,19.4945173 14.5000402,19.4945173 Z" id="Shape" fill="#212D3C"></path>
                    </g>
                </g>
            </g>
        </g>
    </g>
</svg>
